X: 1306
T: The Snow on the Hills
R:Reel
N:Collected by Lawson
B:O'Neill's 1306
Z:Transcribed by Trish O'Neil
M:C|
L:1/8
K:G
G2(dG) BGdG|GABd cAFA|G2(dG) Bcde|fdcB cAFA|
G2(dG) BGdG|GABd cAFA|GABc dfeg|fdcA GABc||
dgga bgaf|dggfd2(cA)|dgga bgag|fdcA GABc|
dgga bgaf|dggf defg|abag fgfe|defd cAFA|]


